X:1
T:The Green Pigeon
L:1/8
M:4/4
I:linebreak $
K:D
V:1 treble 
V:1
 FDAF GFED | FDAF G2 AG | FDAF GFEc | dBcA G2 AG | FDAF GFED | FDAF G2 AG |$ FDAF GFEc | dBcA G4 | %8
 A3 B cAGE | A3 B cded | cAAB cAGE | dBcA G4 |$ A3 B cAGE | A3 B cdeg | f3 d e3 c | dcAF G4 | %16
